dist /img/cards.svg

<svg width="40" height="40" viewBox="0 0 40 40" fill="none" xmlns="http://www.w3.org/2000/svg">
<g clip-path="url(#clip0)">
<path d="M38.6521 10.4023C38.4348 9.77366 37.9856 9.26707 37.3875 8.97593L19.4465 0.250627C18.2114 -0.349961 16.7185 0.166093 16.1179 1.40084L15.2802 3.12234L10.3794 2.16347C9.02804 1.89919 7.71303 2.78329 7.44844 4.13461L6.82588 7.31394H3.74055C2.36725 7.31394 1.25 8.43119 1.25 9.80479V37.5093C1.25 38.8829 2.36725 40.0002 3.74055 40.0002H23.6912C25.0645 40.0002 26.182 38.8829 26.182 37.5093V37.5038C26.2788 37.4315 26.3605 37.3357 26.417 37.2194L38.5377 12.3054C38.8288 11.7073 38.8694 11.0313 38.6521 10.4023ZM17.5229 2.08443C17.7466 1.62423 18.3033 1.43227 18.7632 1.65596L26.1536 5.25033L16.8668 3.43301L17.5229 2.08443ZM8.98165 4.4349C9.08083 3.92892 9.57277 3.5978 10.0794 3.69698L15.5564 4.76876C15.5661 4.7709 15.5759 4.77273 15.5857 4.77456L29.6445 7.52542C29.8899 7.57334 30.1017 7.71402 30.2409 7.92124C30.3803 8.12845 30.4307 8.37748 30.3828 8.62253L26.1817 30.0832V9.80479C26.1817 8.43149 25.0645 7.31394 23.6912 7.31394H8.41799L8.98165 4.4349ZM24.6195 37.5096C24.6195 38.0214 24.2029 38.4377 23.6912 38.4377H3.74055C3.22876 38.4377 2.8125 38.0211 2.8125 37.5096V9.80479C2.8125 9.29301 3.22876 8.87675 3.74055 8.87675H23.6912C24.2029 8.87675 24.6195 9.29301 24.6195 9.80479V37.5096ZM37.1327 11.6218L27.5202 31.3805L31.916 8.92283C31.9724 8.63413 31.9779 8.34391 31.9346 8.06162L36.7042 10.3813C36.927 10.4896 37.0942 10.6785 37.1754 10.9129C37.2563 11.147 37.2413 11.3987 37.1327 11.6218Z" fill="white"/>
<path d="M13.6073 28.8483C13.4538 28.8483 13.3003 28.8031 13.1676 28.7128C13.1047 28.6701 11.6145 27.6499 10.1021 26.2265C7.96857 24.2179 6.88672 22.4368 6.88672 20.9329C6.88672 18.7653 8.65033 17.002 10.8183 17.002C11.9142 17.002 12.928 17.4466 13.6564 18.2092C14.3822 17.4792 15.3764 17.0541 16.4415 17.0541C18.6095 17.0541 20.3731 18.8178 20.3731 20.9851C20.3731 22.4695 19.2824 24.2362 17.1315 26.2363C15.6087 27.6523 14.1081 28.6713 14.0452 28.714C13.9128 28.8037 13.7602 28.8483 13.6073 28.8483ZM10.818 18.5642C9.51185 18.5642 8.44922 19.6268 8.44922 20.9326C8.44922 22.7536 11.4497 25.5515 13.6091 27.1134C15.7847 25.5518 18.8106 22.7667 18.8106 20.9851C18.8106 19.6793 17.7476 18.6166 16.4415 18.6166C15.5528 18.6166 14.7465 19.1077 14.337 19.8981C14.2015 20.1596 13.9287 20.3244 13.636 20.3198C13.3412 20.3171 13.0736 20.1492 12.9429 19.885C12.5398 19.0704 11.7259 18.5642 10.818 18.5642Z" fill="white"/>
<path d="M5.09082 13.3522C4.6593 13.3522 4.30957 13.0025 4.30957 12.571V11.3945C4.30957 10.963 4.6593 10.6133 5.09082 10.6133C5.52204 10.6133 5.87208 10.963 5.87208 11.3945V12.571C5.87208 13.0025 5.52204 13.3522 5.09082 13.3522Z" fill="white"/>
<path d="M22.3408 36.5134C21.9093 36.5134 21.5596 36.1636 21.5596 35.7321V34.5557C21.5596 34.1241 21.9093 33.7744 22.3408 33.7744C22.772 33.7744 23.1221 34.1241 23.1221 34.5557V35.7321C23.1221 36.1636 22.772 36.5134 22.3408 36.5134Z" fill="white"/>
<path d="M19.7729 31.9867C19.7223 31.9867 19.6713 31.9812 19.6207 31.9712C19.5706 31.9611 19.5215 31.9461 19.4748 31.9266C19.4278 31.9071 19.3817 31.883 19.3396 31.8549C19.2966 31.8265 19.2566 31.7938 19.2209 31.7578C19.1849 31.7218 19.1519 31.6822 19.1238 31.6391C19.0958 31.597 19.0717 31.5515 19.0521 31.5039C19.0326 31.4569 19.0176 31.4078 19.0076 31.3577C18.9972 31.308 18.9917 31.2564 18.9917 31.2055C18.9917 31.1548 18.9972 31.1032 19.0076 31.0523C19.0176 31.0031 19.0326 30.954 19.0521 30.9064C19.0717 30.8594 19.0958 30.8142 19.1238 30.7718C19.1519 30.7291 19.1849 30.6891 19.2209 30.6531C19.2566 30.6171 19.2966 30.5844 19.3396 30.5554C19.3817 30.5274 19.4278 30.5039 19.4748 30.4843C19.5215 30.4648 19.5706 30.4492 19.6207 30.4392C19.7217 30.4187 19.8254 30.4187 19.9261 30.4392C19.9762 30.4492 20.0253 30.4648 20.0723 30.4843C20.119 30.5039 20.1645 30.5274 20.2075 30.5554C20.2496 30.5844 20.2893 30.6171 20.3262 30.6531C20.3619 30.6891 20.394 30.7291 20.423 30.7718C20.451 30.8142 20.4755 30.8594 20.495 30.9064C20.5145 30.954 20.5292 31.0031 20.5395 31.0523C20.5496 31.1032 20.5542 31.1548 20.5542 31.2055C20.5542 31.2564 20.5496 31.308 20.5395 31.3577C20.5292 31.4078 20.5145 31.4569 20.495 31.5039C20.4755 31.5515 20.451 31.597 20.423 31.6391C20.394 31.6822 20.3619 31.7218 20.3262 31.7578C20.2893 31.7938 20.2496 31.8265 20.2075 31.8549C20.1645 31.883 20.119 31.9071 20.0723 31.9266C20.0253 31.9461 19.9762 31.9611 19.9261 31.9712C19.8755 31.9812 19.8245 31.9867 19.7729 31.9867Z" fill="white"/>
<path d="M16.7925 31.9873H7.48584C7.05432 31.9873 6.70459 31.6376 6.70459 31.2061C6.70459 30.7745 7.05432 30.4248 7.48584 30.4248H16.7925C17.224 30.4248 17.5738 30.7745 17.5738 31.2061C17.5738 31.6376 17.224 31.9873 16.7925 31.9873Z" fill="white"/>
</g>
<defs>
<clipPath id="clip0">
<rect width="40" height="40" fill="white"/>
</clipPath>
</defs>
</svg>

<svg width="40" height="40" fill="none" xmlns="http://www.w3.org/2000/svg"><g clip-path="url(#clip0)" fill="#fff"><path d="M38.652 10.402a2.476 2.476 0 00-1.264-1.426L19.447.25a2.493 2.493 0 00-3.33 1.15l-.837 1.721-4.9-.959a2.5 2.5 0 00-2.932 1.972l-.622 3.179H3.74a2.493 2.493 0 00-2.491 2.49V37.51A2.493 2.493 0 003.74 40h19.951a2.494 2.494 0 002.491-2.49v-.006a.779.779 0 00.235-.285l12.12-24.914a2.474 2.474 0 00.115-1.903zm-21.13-8.318a.929.929 0 011.241-.428l7.39 3.594-9.286-1.817.656-1.349zm-8.54 2.35a.936.936 0 011.097-.737l5.477 1.072.03.006 14.059 2.75a.928.928 0 01.596.396c.14.207.19.456.142.702l-4.201 21.46V9.805a2.494 2.494 0 00-2.49-2.491H8.417l.564-2.88zM24.619 37.51a.93.93 0 01-.928.928H3.741a.93.93 0 01-.929-.928V9.805a.93.93 0 01.929-.928h19.95a.93.93 0 01.928.928V37.51zm12.514-25.888L27.52 31.38l4.396-22.458a2.52 2.52 0 00.019-.861l4.77 2.32c.222.108.39.296.47.53a.921.921 0 01-.042.71z"/><path d="M13.607 28.848a.78.78 0 01-.44-.135 27.957 27.957 0 01-3.065-2.486c-2.133-2.01-3.215-3.79-3.215-5.294a3.936 3.936 0 016.77-2.724 3.918 3.918 0 012.785-1.155 3.936 3.936 0 013.931 3.931c0 1.485-1.09 3.251-3.242 5.251a28.536 28.536 0 01-3.086 2.478.78.78 0 01-.438.134zm-2.789-10.284a2.371 2.371 0 00-2.369 2.369c0 1.82 3 4.619 5.16 6.18 2.176-1.561 5.202-4.346 5.202-6.128a2.372 2.372 0 00-2.37-2.368c-.888 0-1.694.49-2.104 1.281a.78.78 0 01-1.394-.013 2.357 2.357 0 00-2.125-1.32zM5.09 13.352a.781.781 0 01-.78-.781v-1.176a.781.781 0 111.562 0v1.176c0 .431-.35.781-.781.781zm17.25 23.161a.781.781 0 01-.78-.78v-1.177a.781.781 0 111.562 0v1.176a.78.78 0 01-.781.781zm-2.567-4.526a.786.786 0 01-.781-.781.768.768 0 01.06-.3.811.811 0 01.169-.253.786.786 0 01.4-.214.766.766 0 01.451.045c.047.02.093.043.136.071a.831.831 0 01.288.351.789.789 0 01-.288.948.838.838 0 01-.282.117.788.788 0 01-.153.016zm-2.98 0H7.486a.781.781 0 110-1.562h9.306a.781.781 0 110 1.562z"/></g><defs><clipPath id="clip0"><path fill="#fff" d="M0 0h40v40H0z"/></clipPath></defs></svg>
